X: 041
Q: "slow"
M: C
L: 1/8
K: D
V: 1
|:\
|:\
V: 2 clef=bass middle=d
|:\
d'2g2 "6"fefd | "6"B2z"6"f ga"6"bc' | d'2g2 "6"f3"6"e | dg"4"a"3"A d3e |\
"6"fdgd "6"fefd |
"6"B2z"6"f g2"6 5;4 3"a2 | b2zb e3"6"f | ga"6"b"6"f g2d2 :|\
|:\
d3"6"e "6"fefd | "6"B2z"6"f ga"6"bg | d3"6"e "6"fefc |
d3A D2z"6"c |\
d3"6"e "6"f2"6"d2 | e3"6"f g2"6 5;4 3"a2 | b2"6"c'2 d'3"6"f | ga"6"b"6"f g2d2 :|

